remix/Device/sensor-line.svg

<svg viewBox="0 0 24 24" xmlns="http://www.w3.org/2000/svg"><path fill="none" d="M0 0h24v24H0Z"/><path d="M6 8v11h12V8h-3V2h2v4h5v2h-2v12 0c0 .55-.45 1-1 1H5v0c-.56 0-1-.45-1-1V8H2V6h5V2h2v6H6Zm7-6v6h-2V2h2Z"/></svg>

<svg viewBox="0 0 24 24" fill="currentColor" xmlns="http://www.w3.org/2000/svg"><path d="M6 8V19H18V8H15V2H17V6H22V8H20V20C20 20.5523 19.5523 21 19 21H5C4.44772 21 4 20.5523 4 20V8H2V6H7V2H9V8H6ZM13 2V8H11V2H13Z"/></svg>
